projects/virtualkubelet/icon/black/virtualkubelet-icon-black.svg

<svg xmlns="http://www.w3.org/2000/svg" role="img" viewBox="-2.78 -0.03 365.56 357.06"><path d="M39.2905 76.20989l136.95217 249.49592 142.3757-249.49592L178.9536 7.05607"/><path d="M257.27343 347.90992H102.98756L6.78749 227.28319 41.121 76.86271 180.12967 9.91983 319.13828 76.8627l34.33356 150.42049zm-145.364-18.53139h136.44051l85.069-106.67339-30.36188-133.01865-122.92739-59.19876L57.20229 89.6865 26.84046 222.70514z"/><path d="M258.30831 350.05607H101.951l-97.4841-122.243L39.25894 75.376 180.12967 7.53613l.93022.4485L321.00206 75.376l34.792 152.43707zm-154.28921-4.29232h152.22113l94.90771-119.01046-33.87177-148.40387-137.1465-66.04922L42.98315 78.34607 9.11138 226.75zm145.364-14.2374H110.87784L24.51655 223.235l30.8203-135.03521L180.12967 28.104l124.79115 60.09581 30.8203 135.0369zm-136.43888-4.294H247.315l83.78-105.05711-29.9-131.00371-121.06533-58.30176L59.06439 91.17154l-29.9 131.0037z"/></svg>

<svg id="Layer_1" data-name="Layer 1" xmlns="http://www.w3.org/2000/svg" viewBox="0 0 360 360"><title>virtualkubelet-icon-black</title><path d="M39.2905,76.20989,176.24267,325.70581,318.61837,76.20989,178.9536,7.05607"/><path d="M257.27343,347.90992H102.98756L6.78749,227.28319,41.121,76.86271,180.12967,9.91983,319.13828,76.8627l34.33356,150.42049Zm-145.364-18.53139H248.34994l85.069-106.67339L303.05706,89.68649,180.12967,30.48773,57.20229,89.6865,26.84046,222.70514Z"/><path d="M258.30831,350.05607H101.951l-97.4841-122.243L39.25894,75.376,180.12967,7.53613l.93022.4485L321.00206,75.376l34.792,152.43707ZM104.0191,345.76375H256.24023l94.90771-119.01046L317.27617,78.34942,180.12967,12.3002,42.98315,78.34607,9.11138,226.75Zm145.364-14.2374H110.87784L24.51655,223.235,55.33685,88.19979,180.12967,28.104,304.92082,88.19981l30.8203,135.0369Zm-136.43888-4.294H247.315L331.095,222.17524l-29.9-131.00371L180.12967,32.86977,59.06439,91.17154l-29.9,131.0037Z"/></svg>
